X: 1
T: The Stolen Purse
R: jig
M: 6/8
L: 1/8
K: Ador
edB AGA|AGF G2B|dBA ABd|e2g edB|
~A3 AGA|AGF G2A|GED G2A|Bdd edB|
~A3 AGA|AGF G2B|dBA ABd|e2g edB|
~A3 AGA|BGF G2A|GED G2A|Bdd edB||
def g2b|agf g2e|def g2a|bge edB|
def g2b|agf g2a|bgg agf|e2d efg:|


Tune 2646	Setting 29518

